X: 20764
T: Johnny I Do Miss You
R: polka
M: 2/4
K: Dmajor
d>B|:AF ED|FA/F/ A,F|GB AF|E2 EA/B/|
AF ED|FA, A,F|GB/G/ FE|1 Dd d>B:|2 D2 E2||
FA AG|FA AG|FA Bc|d2 d>A|
FA AG|FA de|fe ed|e2 e>A|
FA AG|FA AG|FA Bc|d2 d>B|
AF ED|FA, A,F|GB/G/ FE|Dd d>B||

